X:356
T:B356-  One Night When All the Village Slept, or Martellus
S:(2nd/3)
Q:1/4=120
L:1/8
M:6/8
K:Em
B|(EF) G (FG) A|(GF) EB2G|(c/B/A) G (FG) A|(^D3D2)B|\
(GF) E (GA) B|(GA) Gd2G|(F/E/D) G (A3/4c/4B) (A/G/)|(G3G2)||B|\
(BA) G (dc) B|(A/G/F) G (AB) c|(Be) d (c/B/A/G/F/) G/|(F3F2)B|\
(EF) G (AB) c|(B^c) ^de2E|(B/A/G) (F/E/) (FA/G/) (F/E/)|(E3E2)|]

